raw/symbols/shib.svg

<svg width="42" height="42" viewBox="0 0 42 42" fill="none" xmlns="http://www.w3.org/2000/svg">
<circle cx="21" cy="21" r="20" fill="#1C2951"/>
<path d="M28.5295 21.5842C28.5167 21.6528 28.3152 21.8586 28.1138 22.0086C27.5222 22.4415 26.4635 22.8444 25.3876 23.0373C24.7747 23.1487 24.1617 23.1659 23.9774 23.0759C23.8574 23.0159 23.8403 22.9687 23.8831 22.8144C23.9731 22.4929 24.2646 22.1415 24.719 21.8114C24.9504 21.6442 25.8891 21.0742 26.3264 20.8341C27.0465 20.4398 27.6294 20.204 28.0237 20.1483C28.1481 20.1312 28.2981 20.1269 28.3452 20.1483C28.4224 20.1783 28.5081 20.4055 28.5424 20.6798C28.5595 20.8255 28.551 21.4685 28.5295 21.5842Z" fill="black"/>
<path d="M18.4306 23.0024C18.4049 23.0539 18.2763 23.1096 18.1305 23.131C17.9848 23.1525 17.539 23.1396 17.2861 23.1096C16.3774 22.9896 15.413 22.711 14.71 22.3681C14.3157 22.1752 14.0328 21.9823 13.8227 21.7723L13.7027 21.648L13.6899 21.4851C13.6684 21.2022 13.6727 20.7564 13.707 20.5978C13.7284 20.4649 13.7756 20.3363 13.8399 20.2206C13.8742 20.1777 13.8742 20.1777 14.0285 20.1777C14.2171 20.1777 14.3757 20.2077 14.6329 20.2892C15.1601 20.4521 15.9445 20.8464 16.9003 21.4208C17.689 21.8923 17.9848 22.1237 18.212 22.4409C18.3663 22.6381 18.4691 22.9167 18.4306 23.0024Z" fill="black"/>
<path d="M24.4998 28.9702C24.4998 28.9831 24.4483 29.1888 24.3841 29.4331C24.3198 29.6775 24.2683 29.8746 24.2683 29.8832C24.2212 29.8875 24.1783 29.8918 24.1312 29.8875H23.994L23.8054 30.3333C23.7025 30.5776 23.6082 30.8048 23.5954 30.8391L23.5696 30.8991L23.4796 30.7533L23.3896 30.6076V29.4203L23.3553 29.4288C23.2825 29.446 22.7638 29.5146 22.5366 29.536C21.5979 29.6303 20.6549 29.6089 19.7205 29.476C19.5705 29.4546 19.4419 29.4374 19.4376 29.4417C19.4333 29.446 19.4376 29.7203 19.4462 30.0589L19.459 30.6676L19.3862 30.779C19.3476 30.8391 19.309 30.8905 19.309 30.8948C19.2961 30.9076 19.2533 30.8391 19.1547 30.6419C19.0475 30.4361 18.9704 30.2175 18.9147 29.9904L18.8847 29.8661L18.7518 29.8746L18.6189 29.8875L18.5846 29.7289C18.5675 29.6432 18.546 29.5103 18.5375 29.4374L18.5246 29.3003L18.4132 29.2017C18.3489 29.1459 18.2846 29.0902 18.2717 29.0816C18.2503 29.0645 18.2417 29.0345 18.2417 29.0088V28.9573L18.7775 28.9616L19.3133 28.9659L19.3304 29.0216L19.3476 29.0774L19.5319 29.0859C19.6348 29.0902 19.9605 29.0988 20.252 29.1074L20.7878 29.1202L20.925 28.9059L21.0664 28.6916H21.2464L21.2421 28.2458L21.2379 27.8L21.0021 27.6972C20.2434 27.3628 19.7976 26.9813 19.6305 26.5184C19.5962 26.4241 19.5962 26.3898 19.5876 25.9612C19.5833 25.5368 19.5833 25.4983 19.6133 25.404C19.6733 25.1896 19.8405 25.0225 20.0548 24.9667C20.1277 24.9453 20.3206 24.9453 21.3322 24.9453L22.5238 24.9496L22.6566 25.0139C22.8152 25.0911 22.8881 25.1468 22.9781 25.2668C23.081 25.404 23.111 25.5111 23.111 25.7726C23.111 26.1455 23.0853 26.467 23.0467 26.5956C22.991 26.7713 22.9053 26.9385 22.7981 27.0885C22.5838 27.3628 22.1937 27.6371 21.838 27.7615L21.7351 27.8L21.7394 28.2501L21.7437 28.7002L21.838 28.7087L21.9323 28.7173L22.0608 28.9102L22.1851 29.1031H22.7595C23.0767 29.1031 23.3553 29.1074 23.381 29.1117C23.4239 29.1202 23.4325 29.1159 23.4753 29.0431L23.5268 28.9659H24.0197C24.3883 28.9488 24.4998 28.9573 24.4998 28.9702Z" fill="black"/>
<path d="M22.2369 30.1993C22.1555 30.2465 22.0998 30.2679 22.0869 30.2593C22.074 30.255 22.014 30.2036 21.9497 30.1564L21.834 30.0621L21.714 30.1907C21.4525 30.4736 21.4439 30.4865 21.3668 30.4908C21.2468 30.5036 21.2211 30.4822 21.0753 30.2636C20.9982 30.1522 20.9382 30.0578 20.9382 30.0578C20.9382 30.0578 20.8824 30.0493 20.8181 30.045L20.6981 30.0321L20.6424 30.1479L20.5867 30.2636L20.4881 30.2336C20.4109 30.2079 20.3338 30.1779 20.2609 30.1436L20.1323 30.0793V29.835L21.2725 29.8392L22.4127 29.8435L22.4169 29.9593C22.4212 30.0964 22.4255 30.0921 22.2369 30.1993Z" fill="black"/>
<path d="M32.9524 24.9711C32.9481 24.954 32.9481 24.924 32.9438 24.8768C31.9151 24.7654 28.9789 24.6968 26.2528 26.9471C26.2528 26.9471 25.3741 22.918 21.2592 22.918C17.1443 22.918 15.6183 26.9471 15.6183 26.9471C13.3123 24.4653 10.2261 24.6454 9.11165 24.8083C9.11165 24.834 9.10736 24.864 9.10736 24.8897C9.07307 25.5112 9.09021 25.807 9.19309 26.197C9.51456 27.4186 10.5047 28.7646 12.0564 30.0848C14.5982 32.2451 18.0444 33.8053 20.6548 33.9853C23.3766 34.1697 27.393 32.5794 30.0676 30.2562C30.4877 29.8833 30.8821 29.489 31.2507 29.0689C31.5164 28.7603 31.9108 28.2288 31.8808 28.2288C31.8722 28.2288 31.8808 28.2202 31.8979 28.2116C31.9108 28.203 31.9236 28.1902 31.9151 28.1816C31.9108 28.1773 31.9194 28.1645 31.9322 28.1602C31.9451 28.1559 31.9536 28.1473 31.9494 28.1388C31.9451 28.1302 31.9494 28.1216 31.9665 28.1173C31.9794 28.113 31.9837 28.1002 31.9794 28.0916C31.9751 28.083 31.9794 28.0745 31.9879 28.0745C31.9965 28.0745 32.0051 28.0616 32.0051 28.053C32.0051 28.0445 32.0137 28.0316 32.0222 28.0316C32.0308 28.0316 32.0394 28.023 32.0394 28.0144C32.0522 27.9802 32.0737 27.9459 32.0951 27.9159C32.1594 27.8173 32.4166 27.3586 32.4509 27.2815C32.6952 26.7285 32.8495 26.2356 32.9224 25.7427C32.9481 25.5069 32.9695 25.074 32.9524 24.9711ZM22.2365 30.2005C22.155 30.2476 22.0993 30.2691 22.0865 30.2605C22.0736 30.2562 22.0136 30.2048 21.9493 30.1576L21.8336 30.0633L21.7135 30.1919C21.4521 30.4748 21.4435 30.4877 21.3663 30.492C21.2463 30.5048 21.2206 30.4834 21.0749 30.2648C20.9977 30.1533 20.9377 30.059 20.9377 30.059C20.9377 30.059 20.882 30.0505 20.8177 30.0462L20.6977 30.0333L20.6419 30.1491L20.5862 30.2648L20.4876 30.2348C20.4105 30.2091 20.3333 30.1791 20.2605 30.1448L20.1319 30.0805V29.8362L21.272 29.8404L22.4122 29.8447L22.4165 29.9605C22.4208 30.0976 22.4251 30.0933 22.2365 30.2005ZM24.3797 29.4289C24.3154 29.6733 24.2639 29.8704 24.2639 29.879C24.2168 29.8833 24.1739 29.8876 24.1268 29.8833H23.9896L23.8053 30.3334C23.7024 30.5777 23.6081 30.8049 23.5952 30.8392L23.5695 30.8992L23.4795 30.7534L23.3895 30.6077V29.4204L23.3552 29.4289C23.2823 29.4461 22.7637 29.5147 22.5365 29.5361C21.5978 29.6304 20.6548 29.609 19.7204 29.4761C19.5704 29.4547 19.4418 29.4375 19.4375 29.4418C19.4332 29.4461 19.4375 29.7204 19.4461 30.059L19.4589 30.6677L19.386 30.7791C19.3475 30.8392 19.3089 30.8906 19.3089 30.8949C19.296 30.9077 19.2532 30.8392 19.1546 30.642C19.0474 30.4362 18.9703 30.2176 18.9145 29.9905L18.8845 29.8662L18.7517 29.8747L18.6188 29.8876L18.5845 29.729C18.5673 29.6433 18.5459 29.5104 18.5373 29.4375L18.5245 29.3004L18.413 29.2018C18.3487 29.146 18.2845 29.0903 18.2716 29.0818C18.2502 29.0646 18.2416 29.0346 18.2416 29.0089V28.9574L18.7774 28.9617L19.3132 28.966L19.3303 29.0217L19.3475 29.0775L19.5318 29.086C19.6347 29.0903 19.9604 29.0989 20.2519 29.1075L20.7877 29.1203L20.9249 28.906L21.0663 28.6917H21.2463L21.242 28.2459L21.2378 27.8001L21.002 27.6973C20.2433 27.3629 19.7975 26.9814 19.6304 26.5185C19.5961 26.4242 19.5961 26.3899 19.5875 25.9613C19.5832 25.5369 19.5832 25.4984 19.6132 25.4041C19.6732 25.1897 19.8404 25.0226 20.0547 24.9668C20.1276 24.9454 20.3205 24.9454 21.3321 24.9454L22.5237 24.9497L22.6565 25.014C22.8151 25.0912 22.888 25.1469 22.978 25.2669C23.0809 25.4041 23.1109 25.5112 23.1109 25.7727C23.1109 26.1456 23.0852 26.4671 23.0466 26.5957C22.9909 26.7714 22.9051 26.9386 22.798 27.0886C22.5837 27.3629 22.1936 27.6372 21.8378 27.7616L21.735 27.8001L21.7393 28.2502L21.7435 28.7003L21.8378 28.7088L21.9321 28.7174L22.0607 28.9103L22.185 29.1032H22.7594C23.0766 29.1032 23.3552 29.1075 23.3809 29.1118C23.4238 29.1203 23.4324 29.116 23.4752 29.0432L23.5267 28.966H24.0196C24.4011 28.966 24.5125 28.9703 24.5125 28.9832C24.4997 28.9789 24.4439 29.1889 24.3797 29.4289Z" fill="white"/>
<path d="M32.9185 24.5341C32.9099 24.3412 32.8928 24.0712 32.8799 23.9383C32.6956 21.9923 32.1984 20.402 31.2554 18.7175C31.2168 18.6532 31.1825 18.5889 31.1611 18.5375C31.1525 18.5246 31.1483 18.5118 31.144 18.5032C31.2768 18.1046 31.8212 16.4372 32.2541 14.5297C32.8414 11.9408 33.2143 8.9146 32.0741 8.00589C32.0741 8.00589 30.1024 7.86015 27.462 10.4491C26.7462 11.1649 26.0904 11.9408 25.5074 12.768L25.3231 12.708C24.2601 12.3608 23.1585 12.1465 22.0483 12.0736C21.714 12.0479 20.4666 12.0479 20.0594 12.0736C18.8293 12.1551 17.8863 12.3394 16.8147 12.7123C16.7718 12.7295 16.7332 12.7423 16.6947 12.7552C16.0903 11.9322 15.4173 11.1607 14.6758 10.4534C11.9282 7.85158 9.88363 8.0016 9.88363 8.0016C8.67488 8.94032 9.08637 12.1036 9.71218 14.7783C10.1237 16.5486 10.6295 18.1046 10.8181 18.6661C10.8052 18.6961 10.7881 18.7304 10.7709 18.7604C9.77219 20.7835 9.23211 22.7338 9.10352 24.8084C10.2223 24.6455 13.3041 24.4612 15.6145 26.9473C15.6145 26.9473 17.1404 22.9181 21.2553 22.9181C25.3702 22.9181 26.2489 26.9473 26.2489 26.9473C28.9751 24.697 31.9112 24.7698 32.94 24.877C32.9357 24.7913 32.9271 24.6627 32.9185 24.5341ZM11.6282 17.0501C11.6282 17.0501 10.0251 13.0424 10.4366 10.7534C10.5052 10.3677 10.6337 10.0291 10.8352 9.77187C10.8352 9.77187 12.6526 9.9519 15.5845 13.2095C15.5845 13.2095 15.0273 13.4796 14.2814 14.0539C14.2814 14.0539 14.2771 14.0582 14.2729 14.0582C13.4627 14.6797 12.4254 15.6656 11.6282 17.0501ZM18.4306 23.0039C18.4049 23.0553 18.2763 23.111 18.1306 23.1324C17.9848 23.1539 17.5391 23.141 17.2862 23.111C16.3775 22.991 15.413 22.7124 14.7101 22.3695C14.3157 22.1766 14.0328 21.9837 13.8228 21.7737L13.7028 21.6494L13.6899 21.4865C13.6685 21.2036 13.6728 20.7578 13.7071 20.5992C13.7285 20.4663 13.7756 20.3377 13.8399 20.222C13.8742 20.1791 13.8742 20.1791 14.0285 20.1791C14.2171 20.1791 14.3757 20.2092 14.6329 20.2906C15.1601 20.4535 15.9445 20.8478 16.9004 21.4222C17.6891 21.8937 17.9848 22.1252 18.212 22.4423C18.3663 22.6395 18.4692 22.9181 18.4306 23.0039ZM28.5293 21.5851C28.5164 21.6537 28.315 21.8594 28.1135 22.0094C27.522 22.4423 26.4633 22.8453 25.3874 23.0381C24.7744 23.1496 24.1615 23.1667 23.9772 23.0767C23.8572 23.0167 23.84 22.9696 23.8829 22.8153C23.9729 22.4938 24.2644 22.1423 24.7187 21.8123C24.9502 21.6451 25.8889 21.075 26.3261 20.835C27.0462 20.4406 27.6292 20.2049 28.0235 20.1491C28.1478 20.132 28.2978 20.1277 28.345 20.1491C28.4221 20.1791 28.5079 20.4063 28.5421 20.6807C28.5593 20.8264 28.5507 21.4693 28.5293 21.5851ZM27.8178 14.0539L27.8092 14.0497C27.0891 13.4753 26.549 13.2052 26.549 13.2052C29.3823 9.94761 31.1354 9.76758 31.1354 9.76758C31.3283 10.0291 31.4526 10.3634 31.5212 10.7492C31.9198 13.0381 30.3724 17.0501 30.3724 17.0501C29.7252 15.8971 28.8551 14.8769 27.8178 14.0539Z" fill="#FFA409"/>
<path d="M31.5258 10.7511C31.1914 10.7082 29.6098 10.6997 27.8181 14.0559L27.8095 14.0516C27.0894 13.4772 26.5493 13.2072 26.5493 13.2072C29.3826 9.94956 31.1357 9.76953 31.1357 9.76953C31.3329 10.031 31.4572 10.3653 31.5258 10.7511Z" fill="#FF9300"/>
<path d="M30.3768 17.0516C29.7253 15.8943 28.8595 14.8785 27.8179 14.0555C29.6096 10.6993 31.1869 10.7078 31.5256 10.7507C31.9242 13.0439 30.3768 17.0516 30.3768 17.0516Z" fill="#FF8300"/>
<path d="M31.5902 10.7638C31.5687 10.7595 31.5473 10.7553 31.5259 10.751L31.5902 10.7638Z" fill="#FF8300"/>
<path d="M15.5838 13.2072C15.5838 13.2072 15.0266 13.4772 14.2808 14.0516C14.2808 14.0516 14.2765 14.0559 14.2722 14.0559C12.4162 10.6954 10.7831 10.7082 10.4316 10.7511C10.5002 10.3653 10.6288 10.0267 10.8303 9.76953C10.8346 9.76953 12.652 9.94956 15.5838 13.2072Z" fill="#FF9300"/>
<path d="M14.2773 14.0555C13.4629 14.6813 12.4256 15.6629 11.6283 17.0516C11.6283 17.0516 10.0252 13.0439 10.4367 10.7507C10.7839 10.7078 12.4213 10.6993 14.2773 14.0555Z" fill="#FF8300"/>
<path d="M10.4363 10.751C10.4148 10.7553 10.3891 10.7595 10.3677 10.7638L10.4363 10.751Z" fill="#FF8300"/>
<path d="M26.0392 19.2741C26.0392 19.2741 24.6676 19.3599 24.8391 18.2883C25.0105 17.2167 26.0821 17.0881 26.3821 17.131C26.6822 17.1738 27.8824 17.6025 27.668 18.5026C27.4537 19.4027 27.1537 19.2313 26.9822 19.2741C26.8108 19.317 26.0392 19.2741 26.0392 19.2741Z" fill="white"/>
<path d="M15.923 19.2741C15.923 19.2741 14.5514 19.3599 14.7228 18.2883C14.8943 17.2167 15.9659 17.0881 16.2659 17.131C16.566 17.1738 17.7662 17.6025 17.5518 18.5026C17.3375 19.4027 17.0375 19.2313 16.866 19.2741C16.6946 19.317 15.923 19.2741 15.923 19.2741Z" fill="white"/>
</svg>

<svg xmlns="http://www.w3.org/2000/svg" width="42" height="42" fill="none"><circle cx="21" cy="21" r="20" fill="#1C2951"/><path fill="#000" d="M28.53 21.584c-.013.069-.215.275-.416.425-.592.433-1.65.835-2.726 1.028-.613.112-1.226.129-1.41.039-.12-.06-.138-.107-.095-.262.09-.321.382-.672.836-1.003.231-.167 1.17-.737 1.607-.977.72-.394 1.303-.63 1.698-.686.124-.017.274-.021.321 0 .077.03.163.258.197.532.017.146.009.788-.013.904ZM18.43 23.002c-.025.052-.154.108-.3.129-.145.021-.591.009-.844-.021-.909-.12-1.873-.399-2.576-.742-.394-.193-.677-.386-.887-.596l-.12-.124-.013-.163c-.022-.283-.017-.729.017-.887.021-.133.069-.262.133-.377.034-.043.034-.043.188-.043.19 0 .348.03.605.111.527.163 1.312.557 2.267 1.132.789.471 1.085.703 1.312 1.02.154.197.257.476.219.561ZM24.5 28.97c0 .013-.052.219-.116.463-.064.244-.116.442-.116.45-.047.005-.09.009-.137.005h-.137l-.189.445c-.102.245-.197.472-.21.506l-.025.06-.09-.146-.09-.145V29.42l-.035.009c-.073.017-.591.086-.818.107a11.68 11.68 0 0 1-2.816-.06 2.883 2.883 0 0 0-.283-.034c-.005.004 0 .278.008.617l.013.609-.073.111c-.038.06-.077.111-.077.116-.013.013-.056-.056-.154-.253a2.896 2.896 0 0 1-.24-.652l-.03-.124-.133.009-.133.012-.034-.158a4.503 4.503 0 0 1-.047-.292l-.013-.137-.112-.098a3.88 3.88 0 0 0-.141-.12c-.022-.018-.03-.047-.03-.073v-.052l.535.005.536.004.017.056.018.055.184.009.72.021.536.013.137-.214.141-.214h.18l-.004-.446-.004-.446-.236-.103c-.759-.334-1.204-.716-1.371-1.179-.035-.094-.035-.128-.043-.557-.005-.424-.005-.463.025-.557a.623.623 0 0 1 .442-.437c.073-.022.266-.022 1.277-.022l1.192.005.133.064a.746.746 0 0 1 .321.253c.103.137.133.244.133.506 0 .372-.026.694-.064.823a1.776 1.776 0 0 1-.249.492 2.285 2.285 0 0 1-.96.674l-.103.038.004.45.005.45.094.009.094.008.129.193.124.193h.575c.317 0 .595.004.621.009.043.008.052.004.094-.069l.052-.077h.493c.368-.017.48-.009.48.004Z"/><path fill="#000" d="M22.237 30.2c-.081.047-.137.068-.15.06-.013-.005-.073-.056-.137-.104l-.116-.094-.12.129c-.261.283-.27.296-.347.3-.12.013-.146-.009-.292-.227a7.051 7.051 0 0 1-.137-.206s-.056-.009-.12-.013l-.12-.013-.056.116-.055.116-.099-.03a2.08 2.08 0 0 1-.227-.09l-.129-.065v-.244l1.14.004 1.14.005.005.115c.004.137.008.133-.18.24Z"/><path fill="#fff" d="M32.952 24.971c-.004-.017-.004-.047-.008-.094-1.029-.112-3.965-.18-6.691 2.07 0 0-.879-4.029-4.994-4.029s-5.64 4.03-5.64 4.03c-2.307-2.483-5.393-2.303-6.507-2.14 0 .026-.005.056-.005.082-.034.621-.017.917.086 1.307.322 1.222 1.312 2.568 2.863 3.888 2.542 2.16 5.988 3.72 8.599 3.9 2.722.185 6.738-1.406 9.413-3.729.42-.373.814-.767 1.183-1.187.265-.309.66-.84.63-.84-.009 0 0-.009.017-.017.013-.009.026-.022.017-.03-.004-.005.004-.017.017-.022.013-.004.022-.013.017-.021-.004-.009 0-.017.017-.022.013-.004.018-.017.013-.025-.004-.009 0-.017.009-.017s.017-.013.017-.022.009-.021.017-.021a.018.018 0 0 0 .017-.018.449.449 0 0 1 .056-.098c.064-.099.322-.557.356-.634.244-.553.398-1.046.471-1.54.026-.235.047-.668.03-.77Zm-10.715 5.23c-.082.047-.138.068-.15.06-.013-.005-.073-.056-.138-.103l-.115-.095-.12.129c-.262.283-.27.296-.348.3-.12.013-.145-.009-.291-.227-.077-.112-.137-.206-.137-.206s-.056-.009-.12-.013l-.12-.013-.056.116-.056.116-.098-.03a2.078 2.078 0 0 1-.227-.09l-.13-.064v-.245l1.141.004 1.14.005.005.116c.004.137.008.132-.18.24Zm2.143-.772c-.065.244-.116.441-.116.45-.047.004-.09.009-.137.004h-.137l-.185.45c-.103.245-.197.472-.21.506l-.025.06-.09-.146-.09-.145V29.42l-.035.009c-.073.017-.591.086-.819.107a11.68 11.68 0 0 1-2.816-.06 2.883 2.883 0 0 0-.282-.034c-.005.004 0 .278.008.617l.013.609-.073.111c-.038.06-.077.112-.077.116-.013.013-.056-.056-.154-.253a2.901 2.901 0 0 1-.24-.651l-.03-.125-.133.009-.133.013-.035-.159a4.507 4.507 0 0 1-.047-.291l-.012-.138-.112-.098a3.762 3.762 0 0 0-.141-.12c-.022-.017-.03-.047-.03-.073v-.052l.535.005.536.004.017.056.018.056.184.008.72.022.536.012.137-.214.141-.214h.18l-.004-.446-.004-.446-.236-.103c-.759-.334-1.204-.716-1.372-1.178-.034-.095-.034-.13-.043-.558-.004-.424-.004-.463.026-.557a.623.623 0 0 1 .442-.437c.073-.022.265-.022 1.277-.022l1.192.005.133.064a.746.746 0 0 1 .321.253c.103.137.133.244.133.506 0 .373-.026.694-.064.823a1.778 1.778 0 0 1-.249.493 2.284 2.284 0 0 1-.96.673l-.103.038.004.45.005.45.094.009.094.008.129.193.124.193h.574c.318 0 .596.005.622.009.043.008.051.004.094-.069l.052-.077h.493c.381 0 .492.004.492.017-.012-.004-.068.206-.132.446Z"/><path fill="#FFA409" d="M32.919 24.534a14.464 14.464 0 0 0-.04-.596c-.183-1.946-.68-3.536-1.624-5.22a1.482 1.482 0 0 1-.094-.18c-.009-.013-.013-.026-.017-.035.133-.398.677-2.066 1.11-3.973.587-2.59.96-5.615-.18-6.524 0 0-1.972-.146-4.612 2.443a17.72 17.72 0 0 0-1.955 2.319l-.184-.06a13.38 13.38 0 0 0-3.275-.634 25.643 25.643 0 0 0-1.989 0c-1.23.081-2.173.265-3.244.638-.043.018-.082.03-.12.043a17.455 17.455 0 0 0-2.02-2.302c-2.747-2.601-4.791-2.451-4.791-2.451-1.21.938-.798 4.102-.172 6.776a44.43 44.43 0 0 0 1.106 3.888.965.965 0 0 1-.047.094c-.999 2.023-1.539 3.974-1.667 6.048 1.118-.163 4.2-.347 6.51 2.14 0 0 1.526-4.03 5.641-4.03s4.994 4.03 4.994 4.03a9.136 9.136 0 0 1 6.691-2.071 24.269 24.269 0 0 0-.021-.343Zm-21.29-7.484s-1.604-4.008-1.192-6.297c.068-.385.197-.724.398-.981 0 0 1.818.18 4.75 3.438 0 0-.558.27-1.304.844 0 0-.004.004-.008.004a10.303 10.303 0 0 0-2.645 2.992Zm6.802 5.954c-.026.051-.155.107-.3.128-.146.022-.592.009-.845-.021-.909-.12-1.873-.399-2.576-.742-.394-.192-.677-.385-.887-.595l-.12-.125-.013-.163c-.021-.282-.017-.728.017-.887.021-.133.069-.261.133-.377.034-.043.034-.043.188-.043.19 0 .348.03.605.112.527.162 1.312.557 2.267 1.131.79.472 1.085.703 1.312 1.02.154.198.257.476.219.562Zm10.098-1.419c-.013.069-.214.274-.416.424-.591.433-1.65.836-2.726 1.03-.613.11-1.226.128-1.41.038-.12-.06-.137-.107-.094-.262.09-.321.381-.673.836-1.003.231-.167 1.17-.737 1.607-.977.72-.394 1.303-.63 1.697-.686.125-.017.275-.021.322 0 .077.03.163.257.197.532.017.145.009.788-.013.904Zm-.711-7.531-.009-.004c-.72-.575-1.26-.845-1.26-.845 2.833-3.257 4.586-3.437 4.586-3.437.193.261.318.595.386.981.399 2.29-1.149 6.301-1.149 6.301a10.21 10.21 0 0 0-2.554-2.996Z"/><path fill="#FF9300" d="M31.526 10.751c-.335-.043-1.916-.051-3.708 3.305l-.009-.004c-.72-.575-1.26-.845-1.26-.845 2.834-3.257 4.587-3.437 4.587-3.437.197.261.321.595.39.981Z"/><path fill="#FF8300" d="M30.377 17.052a10.17 10.17 0 0 0-2.56-2.996c1.793-3.357 3.37-3.348 3.709-3.305.398 2.293-1.15 6.3-1.15 6.3ZM31.59 10.764l-.064-.013.064.013Z"/><path fill="#FF9300" d="M15.584 13.207s-.557.27-1.303.845c0 0-.005.004-.009.004-1.856-3.36-3.489-3.348-3.84-3.305.068-.386.197-.724.398-.981.005 0 1.822.18 4.754 3.437Z"/><path fill="#FF8300" d="M14.277 14.056c-.814.625-1.851 1.607-2.649 2.996 0 0-1.603-4.008-1.191-6.301.347-.043 1.984-.052 3.84 3.305ZM10.436 10.751l-.068.013.068-.013Z"/><path fill="#fff" d="M26.04 19.274s-1.372.086-1.2-.986c.17-1.071 1.242-1.2 1.542-1.157.3.043 1.5.471 1.286 1.372-.214.9-.514.728-.686.771-.171.043-.943 0-.943 0ZM15.923 19.274s-1.372.086-1.2-.986c.171-1.071 1.243-1.2 1.543-1.157.3.043 1.5.471 1.286 1.372-.215.9-.514.728-.686.771-.171.043-.943 0-.943 0Z"/></svg>
